X:1
T:The Wife Wrapt in Wether's Skin
M:4/4
L:1/4
K:C
 D| G G E D| G G E2| E2 G2| E2 G| D| G G E D| G G E- D| G2 B B| B2 d|\
 B| d d B G| B B G E| B B G E/2E/2| B B/2B/2| G- E| G2 E- D| G G E- D|\
 E2 G2| G3||

